!!!!SEGMENT: pl-wumfc--r282--001-005_paderewski-ignacy-jan--exercises-1-exercise-5.krn
!!!cenid: 18xx:3164
!!!COM: Paderewski, Ignacy Jan
!!!COM-rismID: pe30029943
!!!CDT: 1860/11/18-1941/06/29
!!!CNT: Polish
!!!GTL: [Exercises 1]
!!!OTL: [Exercise] 5
!!!OMV: 005
!!!PDT:
!!!AGN:
!!!SMS-siglum: PL-Wumfc
!!!SMS-shelfmark: R282
!!!SMS-shelfwork: 001-005 G
!!!SMS-variant:
!!!SMS-altvar:
!!!NIFC-rismSourceID: 1001158933
!!!NIFC-rismChildID: 1001158933
!!!NIFC-islandoraID: pl-wumfc:419
!!!URL-pdf-islandora: https://repozytorium.nifc.pl/islandora/object/pl-wumfc%3A419/datastream/PDF/view
!!!URL-scan: https://polish.musicsources.pl/pl/lokalizacje/galeria/rekopisy/4702 @EN{Scan on Polish Music Sources Website} @PL{Skany w portalu Dziedzictwo Muzyki Polskiej w otwartym dostępie}
!!!ONB-nifc: UWAGA: pierwsza grupa ćwiczeń na skanach 0004-0007
!!!AIN: 2 piano
!!!key: a
!!!filter-modern: sic -sq | shed -e "s/TX(.*):t=P:/tx$1:t=P:/LG" | autostem -r | modori -m |
**kern	**kern
*part2	*part1
*staff2	*staff1
*>[A,A,B]	*>[A,A,B]
*>A	*>A
*I"[Pianoforte]	*I"[Pianoforte]
*I'	*I'
*mI"Pianoforte	*mI"Pianoforte
*mI'pf	*mI'pf
*Ipiano	*Ipiano
*ICklav	*ICklav
*IGsolo	*IGsolo
*clefF4	*clefG2
*k[]	*k[]
*a:	*a:
!LO:MO:null:mod=*M6/4	!LO:MO:null:mod=*M6/4
*	*
!	!LO:TX:a:i:t=C. f
!	!LO:TX:t=P:problem=brak oznaczenia metrycznego
4E\	2.e/
4e\	.
4d\	.
=1	=1
4c\	2.a/
4B\	.
4A\	.
4B\	2.g/
4G\	.
4A\	.
=2	=2
4B\	2.f/
4c\	.
4d\	.
4c\	2.e/
4B\	.
4A\	.
=3	=3
*^	*
4B\	4ryy	1.d
!LO:TX:a:t=(oder)	!	!
4c/	4A\	.
4B/	4G\	.
4A/	4F\	.
4G#X/	4E\	.
4F#X/	4D\	.
=4	=4	=4
!LO:N:vis=2	!	!
2.E;/	4C\	2.e;/
.	4BB\	.
.	4AA\	.
4GG\	4ryy	2.b\
4G\	2ryy	.
4F\	.	.
*v	*v	*
=5	=5
4E\	2.cc\
4D\	.
4C\	.
4c\	2.cc\
4B\	.
4A\	.
=6	=6
4G\	2.b\
4F\	.
4E\	.
4D\	2.b\
4E\	.
4D\	.
=7	=7
4C\	1.a
4D\	.
4E\	.
4D\	.
4E\	.
4D\	.
=8	=8
!LO:N:vis=2	!
2.C;\	2.a;\
=:|!	=:|!
*>B	*>B
4A\	2.cc\
4F\	.
4E\	.
=9	=9
4D\	2.b\
4E\	.
4D\	.
4E\	2.g/
4F#X\	.
4G\	.
=10	=10
4F#X\	2.a/
4E\	.
4Dn\	.
4G\	2.b/
4A\	.
4B\	.
!!LO:LB:g=original
=11	=11
4A\	1.cc
4G#X\	.
4F#X\	.
4E\	.
4F#\	.
4G#\	.
=12	=12
!LO:N:vis=2	!
2.A;\	2.cc;\
4e\	2.g/
4d\	.
4c\	.
=13	=13
4f\	2.a/
4c\	.
4d\	.
4e\	2.g/
4c\	.
4B\	.
=14	=14
4A\	2.a/
4B\	.
4c#X\	.
4d\	2.f/
4A\	.
4B\	.
=15	=15
4c\	1.e
4e\	.
4d\	.
4c\	.
4B\	.
4A\	.
=16	=16
2G;\	2.e;/
4F\	.
4E\	2.cc\
4D\	.
4C\	.
=17	=17
4G\	2.b\
4D\	.
4E\	.
4F\	2.dd\
4E\	.
4D\	.
=18	=18
4A\	2.cc\
4G\	.
4F\	.
4G\	2.b\
4D\	.
4E\	.
=19	=19
4F\	1.a
4E\	.
4D\	.
4C\	.
4D\	.
4E\	.
=20	=20
2.D;\	2.b;\
4C\	2.e/
4A\	.
4G\	.
=21	=21
4F\	2.f/
4E\	.
4D\	.
4C\	2.e/
4BB\	.
4AA\	.
=22	=22
4BB\	2.d/
4C\	.
4D\	.
4F\	2.d/
4E\	.
4D\	.
=23	=23
4C\	1.e
4E\	.
4D\	.
4C\	.
4BB\	.
4C\	.
=24	=24
!LO:SIC:s=2.AA\;	!LO:SIC:s=2.e/;
2.AA\	2.e/
==	==
*-	*-
!!!system-decoration: {(s1,s2)}
!!!ENC: Filip Voros
!!!END: 2021-11-11
!!!ENC: Andrzej Kubiczek
!!!END: 2021-11-14
!!!ENC-modern: Andrzej Borzym
!!!END-modern: 2022-08-29
!!!YEC: Copyright 2022 Narodowy Instytut Fryderyka Chopina (https://polishscores.org)
!!!YEM: License CC-BY-4.0 (https://creativecommons.org/licenses/by/4.0)
